src/components/00-materials/images-raw/Clock.svg

<svg width="96" height="96" viewBox="0 0 96 96" fill="none" xmlns="http://www.w3.org/2000/svg">
<path d="M48 81C66.2254 81 81 66.2254 81 48C81 29.7746 66.2254 15 48 15C29.7746 15 15 29.7746 15 48C15 66.2254 29.7746 81 48 81Z" stroke="#00008F" stroke-width="2" stroke-linecap="round" stroke-linejoin="round"/>
<path d="M48 52C50.2091 52 52 50.2091 52 48C52 45.7909 50.2091 44 48 44C45.7909 44 44 45.7909 44 48C44 50.2091 45.7909 52 48 52Z" stroke="#00008F" stroke-width="2" stroke-linecap="round" stroke-linejoin="round"/>
<path d="M75 48H68M48 21V28V21ZM38 38L45.17 45.17L38 38ZM29 29L30 30L29 29ZM67 29L66 30L67 29ZM29 67L30 66L29 67ZM67 67L66 66L67 67ZM23.18 37.72L24.48 38.26L23.18 37.72ZM58.28 23.18L57.74 24.48L58.28 23.18ZM37.72 72.82L38.26 71.52L37.72 72.82ZM72.82 58.28L71.52 57.74L72.82 58.28ZM37.72 23.18L38.26 24.48L37.72 23.18ZM72.82 37.72L71.52 38.26L72.82 37.72ZM23.18 58.28L24.48 57.74L23.18 58.28ZM58.28 72.82L57.74 71.52L58.28 72.82ZM61 35L50.83 45.17L61 35ZM48 68V75V68ZM28 48H21H28Z" stroke="#00008F" stroke-width="2" stroke-linecap="round" stroke-linejoin="round"/>
</svg>

<svg width="96" height="96" viewBox="0 0 96 96" fill="none" xmlns="http://www.w3.org/2000/svg"><path d="M48 81c18.225 0 33-14.775 33-33S66.225 15 48 15 15 29.775 15 48s14.775 33 33 33z" stroke="#00008F" stroke-width="2" stroke-linecap="round" stroke-linejoin="round"/><path d="M48 52a4 4 0 100-8 4 4 0 000 8zM75 48h-7M48 21v7-7zM38 38l7.17 7.17L38 38zm-9-9l1 1-1-1zm38 0l-1 1 1-1zM29 67l1-1-1 1zm38 0l-1-1 1 1zM23.18 37.72l1.3.54-1.3-.54zm35.1-14.54l-.54 1.3.54-1.3zM37.72 72.82l.54-1.3-.54 1.3zm35.1-14.54l-1.3-.54 1.3.54zm-35.1-35.1l.54 1.3-.54-1.3zm35.1 14.54l-1.3.54 1.3-.54zM23.18 58.28l1.3-.54-1.3.54zm35.1 14.54l-.54-1.3.54 1.3zM61 35L50.83 45.17 61 35zM48 68v7-7zM28 48h-7 7z" stroke="#00008F" stroke-width="2" stroke-linecap="round" stroke-linejoin="round"/></svg>
